icon-svg/lyrion.svg

<svg xmlns="http://www.w3.org/2000/svg" viewBox="0 0 24 24"><path fill="#44739e" d="M21.655 10.793a.344.344 0 0 0-.345.345v1.724a.345.345 0 0 0 .69 0v-1.724a.345.345 0 0 0-.345-.345m-4.291-1.335a.346.346 0 0 0-.346.346V14.2a.346.346 0 1 0 .691 0V9.8a.346.346 0 0 0-.345-.342m2.145-2.985a.346.346 0 0 0-.345.345v10.364a.346.346 0 0 0 .691 0V6.818a.346.346 0 0 0-.346-.345m-4.291.307a.346.346 0 0 0-.345.345v9.75a.345.345 0 1 0 .69 0v-9.75a.345.345 0 0 0-.345-.345m-4.291 1.399a.346.346 0 0 0-.345.345v6.952a.345.345 0 0 0 .69 0V8.524a.345.345 0 0 0-.345-.345M8.782 9.578a.344.344 0 0 0-.345.345v4.154a.345.345 0 1 0 .69 0V9.923a.345.345 0 0 0-.345-.345m4.291-5.015a.344.344 0 0 0-.345.345v14.184a.345.345 0 0 0 .69 0V4.908a.345.345 0 0 0-.345-.345m-6.437.989a.346.346 0 0 0-.345.345V18.1a.346.346 0 0 0 .691 0V5.9a.346.346 0 0 0-.346-.348M4.491 8.179a.346.346 0 0 0-.346.345v6.952a.346.346 0 0 0 .691 0V8.524a.346.346 0 0 0-.345-.345m-2.146 2.627a.346.346 0 0 0-.345.345v1.7a.345.345 0 1 0 .69 0v-1.7a.345.345 0 0 0-.345-.345"/></svg>

<?xml version="1.0" encoding="UTF-8"?>
<svg width="24px" fill="#44739e" height="24px" viewBox="0 0 24 24" version="1.1" xmlns="http://www.w3.org/2000/svg" xmlns:xlink="http://www.w3.org/1999/xlink">
            <path d="m 21.655,10.793 a 0.344,0.344 0 0 0 -0.345,0.345 v 1.724 a 0.345,0.345 0 0 0 0.69,0 V 11.138 A 0.345,0.345 0 0 0 21.655,10.793 Z M 17.364,9.458 A 0.346,0.346 0 0 0 17.018,9.804 V 14.2 a 0.346,0.346 0 1 0 0.691,0 V 9.8 A 0.346,0.346 0 0 0 17.364,9.458 Z m 2.145,-2.985 a 0.346,0.346 0 0 0 -0.345,0.345 v 10.364 a 0.346,0.346 0 0 0 0.691,0 V 6.818 A 0.346,0.346 0 0 0 19.509,6.473 Z M 15.218,6.78 a 0.346,0.346 0 0 0 -0.345,0.345 v 9.75 a 0.345,0.345 0 1 0 0.69,0 V 7.125 A 0.345,0.345 0 0 0 15.218,6.78 Z m -4.291,1.399 a 0.346,0.346 0 0 0 -0.345,0.345 v 6.952 a 0.345,0.345 0 0 0 0.69,0 V 8.524 A 0.345,0.345 0 0 0 10.927,8.179 Z M 8.782,9.578 A 0.344,0.344 0 0 0 8.437,9.923 v 4.154 a 0.345,0.345 0 1 0 0.69,0 V 9.923 A 0.345,0.345 0 0 0 8.782,9.578 Z m 4.291,-5.015 a 0.344,0.344 0 0 0 -0.345,0.345 v 14.184 a 0.345,0.345 0 0 0 0.69,0 V 4.908 A 0.345,0.345 0 0 0 13.073,4.563 Z M 6.636,5.552 A 0.346,0.346 0 0 0 6.291,5.897 V 18.1 a 0.346,0.346 0 0 0 0.691,0 V 5.9 A 0.346,0.346 0 0 0 6.636,5.552 Z M 4.491,8.179 A 0.346,0.346 0 0 0 4.145,8.524 v 6.952 a 0.346,0.346 0 0 0 0.691,0 V 8.524 A 0.346,0.346 0 0 0 4.491,8.179 Z M 2.345,10.806 A 0.346,0.346 0 0 0 2,11.151 v 1.7 a 0.345,0.345 0 1 0 0.69,0 v -1.7 A 0.345,0.345 0 0 0 2.345,10.806 Z"/>

</svg>
